svgs/myairtel.svg

<?xml version="1.0" encoding="UTF-8" standalone="no"?>
<svg version="1.0" width="24" height="24" viewBox="0 0 24 24" preserveAspectRatio="xMidYMid meet" id="svg22"
    sodipodi:docname="myairtel1.svg" inkscape:version="1.1.1 (3bf5ae0d25, 2021-09-20, custom)"
    xmlns:inkscape="http://www.inkscape.org/namespaces/inkscape"
    xmlns:sodipodi="http://sodipodi.sourceforge.net/DTD/sodipodi-0.dtd" xmlns="http://www.w3.org/2000/svg"
    xmlns:svg="http://www.w3.org/2000/svg" xmlns:rdf="http://www.w3.org/1999/02/22-rdf-syntax-ns#"
    xmlns:cc="http://creativecommons.org/ns#" xmlns:dc="http://purl.org/dc/elements/1.1/">
    <defs id="defs26" />
    <sodipodi:namedview pagecolor="#ffffff" bordercolor="#666666" borderopacity="1" objecttolerance="10"
        gridtolerance="10" guidetolerance="10" inkscape:pageopacity="0" inkscape:pageshadow="2"
        inkscape:window-width="1920" inkscape:window-height="1003" id="namedview24" showgrid="true" inkscape:zoom="32"
        inkscape:cx="15.640625" inkscape:cy="11.390625" inkscape:window-x="0" inkscape:window-y="0"
        inkscape:window-maximized="1" inkscape:current-layer="svg22" inkscape:pagecheckerboard="0"
        inkscape:document-units="px" units="px">
        <inkscape:grid type="xygrid" id="grid830" />
    </sodipodi:namedview>
    <metadata id="metadata2">
        <rdf:RDF>
            <cc:Work rdf:about="">
                <dc:format>image/svg+xml</dc:format>
                <dc:type rdf:resource="http://purl.org/dc/dcmitype/StillImage" />
            </cc:Work>
        </rdf:RDF>
    </metadata>
    <path id="path4-3" style="fill:#000"
        d="M 13.410156,3 C 12.785266,2.9983 11.672579,3.2750209 10.662109,3.7069416 9.5842752,4.1676572 8.6484986,4.8896097 8.2382812,5.2594794 7.417834,5.9992294 6.9524137,6.7640019 7.0039062,7.595121 7.0108493,7.9259318 7.1464071,8.1862038 7.4121094,8.3958009 7.6842913,8.590816 7.9968723,8.6854391 8.3359375,8.6750623 9.1194531,8.6218935 9.5971489,8.485366 10.429688,7.9700735 c 0.832561,-0.5153596 2.087381,-1.2810197 3.097656,-1.6814276 0.331959,-0.1357505 0.641045,-0.1735091 0.93164,-0.091785 0.290596,0.081724 0.509665,0.2237362 0.626954,0.4686907 0.210599,0.567021 0.162721,1.1916697 -0.132813,1.7224381 -0.496874,0.9602945 -1.202356,1.8075603 -2.068359,2.4821073 -0.655033,0.584913 -1.479927,1.058112 -2.220704,1.327957 -0.471997,0.124043 -0.525251,-0.05343 -0.527343,-0.16209 -0.003,-0.151853 0.04139,-0.28218 0.15039,-0.402292 0.238063,-0.262342 0.729105,-0.749944 1.0625,-1.070177 0.193937,-0.195462 0.403398,-0.336945 0.375,-0.6756953 C 11.696145,9.5490272 11.330757,9.2366395 10.90625,9.2492084 10.481719,9.2626266 10.141781,9.4421156 9.8632812,9.6300195 9.5847576,9.8178784 9.4080002,10.038388 9.1816406,10.37016 8.9553047,10.701954 8.3991579,11.738763 8.9140625,12.520278 9.1399358,12.845453 9.5054596,13.031601 9.9101562,13 10.312124,12.98211 10.734083,12.895368 11.107422,12.750718 12.382011,12.2384 13.440119,11.478558 14.443359,10.639657 15.511537,9.8107739 16.293745,8.7503247 16.736328,7.49943 17.010686,6.7524003 17.109863,5.897505 16.847656,5.2165161 16.200912,3.5753172 14.68792,3.0896284 13.410156,3 Z M 7.578125,14 c -0.4444939,-0.0029 -0.8073345,0.343593 -0.8105469,0.775852 -0.060925,1.093433 1.6585814,1.093433 1.5976563,0 0.00316,-0.198403 -0.075635,-0.389749 -0.21875,-0.531182 C 8.0001629,14.089759 7.794413,14.002075 7.578125,14 Z m 6.269531,0.5 -1.291015,0.3 v 4.625653 c 0,1.033609 0.612896,1.574347 1.640625,1.574347 0.161272,-0.0016 0.32179,-0.0091 0.480468,-0.03743 v -0.828021 h -0.18164 c -0.541847,-0.01752 -0.648438,-0.312446 -0.648438,-0.650308 v -2.601233 h 0.830078 V 16 h -0.830078 z m 7.335938,0 -1.271485,0.3 v 4.600266 C 19.912109,20.485582 20.512745,21 21.517578,21 21.679773,20.9958 21.840466,20.98188 22,20.9528 v -0.82802 c -0.0619,0.0024 -0.123736,0.0022 -0.185547,-0.002 -0.52404,-0.04001 -0.630859,-0.264886 -0.630859,-0.642497 z M 4.2070312,16 C 3.4556181,15.993 2.9136385,16.306367 2.3671875,16.56664 l 0.3359375,0.720612 0.1914062,-0.08593 c 0.3716434,-0.171023 0.7797809,-0.260352 1.1933594,-0.261686 0.4563417,0.01682 0.6445313,0.216019 0.6445313,0.626874 v 0.240204 H 3.9707031 C 2.7673889,17.806718 2.0203951,18.407494 2,19.339727 2.014551,20.293003 2.8666985,21.04913 3.8769531,21 4.6615097,21.029013 5.4253177,20.757874 6,20.253673 V 17.71298 C 5.7572872,16.539492 4.9566721,16 4.2070312,16 Z m 3.9785157,0 -1.25,0.170207 V 21 h 1.25 z m 3.1679691,0 c -0.792511,0 -1.6034349,0.432262 -2.1523441,1.009991 V 21 h 1.2734371 v -3.76157 c 0.245681,-0.18604 0.548447,-0.297922 0.863282,-0.30843 0.171542,-0.0088 0.343904,0.02778 0.509765,0.07 l 0.353516,-0.767302 C 11.750881,16 11.645453,16 11.353516,16 Z m 5.835937,0 c -1.480539,0 -2.058184,1.258316 -2.068359,2.515613 -0.03016,0.775784 0.286541,1.524016 0.867187,2.050521 0.383712,0.291512 0.858918,0.447368 1.34375,0.433866 0.303398,6.5e-4 0.604287,-0.04631 0.894531,-0.133122 0.33607,-0.103864 0.655823,-0.254677 0.947266,-0.449162 l -0.355469,-0.720612 c -0.399306,0.269553 -0.872985,0.415715 -1.357421,0.419869 -0.271935,0.01669 -0.536417,-0.08159 -0.728516,-0.271451 -0.226406,-0.249959 -0.328764,-0.738596 -0.300781,-1.263512 h 2.714843 V 18.45898 C 19.123584,16.709262 18.51736,16 17.189453,16 Z m 0,0.998227 c 0.559654,0 0.640625,0.379965 0.640625,0.749905 H 16.46875 c 0.02798,-0.477423 0.222102,-0.749905 0.720703,-0.749905 z M 4.2128906,18.593728 h 0.5097656 l -0.00586,1.409977 c -0.1986172,0.108748 -0.4247034,0.162909 -0.6542969,0.15623 -0.5098789,0 -0.7367602,-0.36865 -0.7265625,-0.798727 -0.00574,-0.447659 0.3928615,-0.762442 0.8769538,-0.76748 z"
        sodipodi:nodetypes="csscccccscccccccccccccccccccccccccsccccscccccccsccccsccccccscsccccccccccscccccccsscccccccccccssccscccccc" />

</svg>

<svg xmlns="http://www.w3.org/2000/svg" viewBox="0 0 24 24"><path d="M13.41 3c-.625-.002-1.738.275-2.748.707-1.078.46-2.014 1.183-2.424 1.552-.82.74-1.286 1.505-1.234 2.336.007.33.142.591.408.8.272.196.585.29.924.28.783-.053 1.261-.19 2.094-.705.832-.515 2.087-1.281 3.097-1.681.332-.136.641-.174.932-.092.29.082.51.224.627.468.21.568.163 1.192-.133 1.723a7.546 7.546 0 0 1-2.068 2.482 7.153 7.153 0 0 1-2.221 1.328c-.472.124-.525-.053-.527-.162a.552.552 0 0 1 .15-.402c.238-.263.73-.75 1.063-1.07.194-.196.403-.338.375-.676-.029-.34-.394-.651-.819-.639-.424.014-.764.193-1.043.38-.278.189-.455.41-.681.741-.227.332-.783 1.369-.268 2.15.226.325.591.511.996.48a3.862 3.862 0 0 0 1.197-.25c1.275-.512 2.333-1.272 3.336-2.11 1.068-.83 1.85-1.89 2.293-3.14.275-.748.374-1.603.112-2.284C16.2 3.576 14.688 3.09 13.41 3zM7.578 14a.793.793 0 0 0-.81.776c-.061 1.093 1.658 1.093 1.597 0a.73.73 0 0 0-.219-.531.791.791 0 0 0-.568-.245zm6.27.5-1.292.3v4.626c0 1.033.613 1.574 1.641 1.574.161-.002.322-.01.48-.037v-.828h-.181c-.542-.018-.649-.313-.649-.65v-2.602h.83V16h-.83zm7.335 0-1.271.3v4.6c0 1.086.6 1.6 1.605 1.6.163-.004.323-.018.483-.047v-.828a1.74 1.74 0 0 1-.186-.002c-.524-.04-.63-.265-.63-.643zM4.206 16c-.751-.007-1.293.306-1.84.567l.337.72.19-.086a2.88 2.88 0 0 1 1.194-.261c.457.016.645.216.645.626v.24H3.97c-1.203 0-1.95.601-1.97 1.534.014.953.866 1.71 1.876 1.66A3.055 3.055 0 0 0 6 20.254v-2.541C5.757 16.539 4.956 16 4.206 16zm3.979 0-1.25.17V21h1.25zm3.168 0c-.793 0-1.604.432-2.152 1.01V21h1.273v-3.762a1.52 1.52 0 0 1 .863-.308 1.73 1.73 0 0 1 .51.07l.354-.767C11.75 16 11.645 16 11.353 16zm5.836 0c-1.48 0-2.058 1.258-2.069 2.516-.03.775.287 1.524.868 2.05.383.292.859.447 1.343.434a3.1 3.1 0 0 0 .895-.133c.336-.104.656-.255.947-.45l-.355-.72c-.4.27-.873.416-1.358.42a.951.951 0 0 1-.728-.272c-.227-.25-.329-.738-.301-1.263h2.715v-.123c-.023-1.75-.63-2.459-1.957-2.459zm0 .998c.56 0 .64.38.64.75h-1.36c.027-.477.221-.75.72-.75zM4.212 18.594h.51l-.006 1.41a1.285 1.285 0 0 1-.655.156c-.51 0-.736-.369-.726-.799-.006-.447.393-.762.877-.767z"/></svg>
